X: 2959
T: Barry's Hug
R: hornpipe
M: 4/4
K: Dmajor
|d2 D2 dcdB|A2D2 z2 (3)ABc|d2D2dfed|c2A2z2(3)ABc|
d2df edcB|dcdB ^A4|=A^GAB A=GFE|F2 D2 z2 (3)ABc|
d2 D2 dcdB|A2D2 z2 (3)ABc|d2D2dfed|c2A2z2(3)ABc|
d2df edcB|dcdB ^A4|=A^GAB A=GFE|Dfef dfcf||
BF (3)F^EF BdcB|cF (3)F^EF cedc|B^ABc dcde|ffef dfcf|
B2 B^A BdcB|c2 AF E4|E^GBd f^e=ed|cfef dfcf|
BF (3)F^EF BdcB|cF (3)F^EF cedc|B^ABc dcde|f2 fe defd|
gfge A2 z2|f^efd A2 z2|Aceg abag|f2d2d2z2||

